apps/pie-docs/src/assets/img/foundations/elevation/overlapping-elements.svg

<svg width="851" height="223" viewBox="0 0 851 223" fill="none" xmlns="http://www.w3.org/2000/svg">
<path d="M0 12C0 5.37259 5.37258 0 12 0H839C845.627 0 851 5.37258 851 12V223H0V12Z" fill="white"/>
<g clip-path="url(#clip0_3799_3760)">
<path d="M67.9107 31.3135H63.698C62.3318 31.3135 62.3318 31.3135 62.0477 32.9137C61.7636 34.5139 61.7623 34.5712 63.0156 34.5712H65.5196L64.0963 42.7496C63.7551 44.5805 62.9585 45.838 60.5116 46.5808C59.8849 46.7528 59.715 46.9808 59.715 47.2675C59.715 47.6102 59.8278 47.8956 60.1133 48.5824C60.5116 49.5545 60.7386 49.7252 61.0812 49.7252C61.4237 49.7252 62.049 49.5545 62.2761 49.4971C65.7493 48.353 67.1725 45.666 67.7408 42.4642L69.334 33.2631C69.6181 31.3188 69.6181 31.3188 67.9107 31.3188" fill="#FF8000"/>
<path d="M82.1993 31.3135C80.4919 31.3135 80.4919 31.3135 80.2635 32.743L79.0115 40.1759C78.6703 42.3482 78.1007 43.607 75.995 43.607C73.9451 43.607 73.2069 42.3482 73.5468 40.4066L74.7417 33.3177C75.0842 31.3175 75.0271 31.3175 73.2626 31.3175C71.5539 31.3175 71.4968 31.3175 71.2711 32.6897L70.0191 40.1226C69.2783 44.3538 71.8964 46.9835 75.5954 46.9835C79.7523 46.9835 81.8581 45.0966 82.5418 40.6373L83.7938 33.2617C84.0779 31.3175 83.9638 31.3175 82.2006 31.3175" fill="#FF8000"/>
<path d="M89.9981 43.4928C91.3656 43.4355 92.1051 42.806 92.1051 42.178C92.1051 41.3779 91.1372 41.0911 89.8281 40.6911C87.2657 39.891 84.9316 38.9762 84.9316 36.2305C84.9316 32.9714 87.6082 31.1992 90.9659 31.1992C92.3892 31.1992 93.9838 31.2566 95.0087 31.3712C95.9195 31.4859 96.1466 31.7713 95.8624 33.2008C95.5783 34.6303 95.2358 34.745 94.4392 34.6877C93.4713 34.6303 92.2193 34.5156 90.7389 34.5156C89.0315 34.5156 88.519 35.1451 88.519 35.7158C88.519 36.4586 89.2014 36.8586 90.796 37.316C93.7554 38.1734 95.6912 39.3749 95.6912 41.9473C95.6912 44.9783 93.4713 46.7479 89.8852 46.8652C88.1722 46.9254 86.4574 46.8295 84.7617 46.5785C83.6225 46.4078 83.5668 46.4078 83.8509 44.749C84.135 43.2621 84.135 43.1487 85.2171 43.2621C87.3228 43.4915 88.6319 43.5488 89.9967 43.4915" fill="#FF8000"/>
<path d="M108.612 31.3135H98.9932C97.627 31.3135 97.627 31.3135 97.3429 32.971C97.0587 34.6286 97.1145 34.6299 98.3107 34.6299H101.443L99.6769 44.8645C99.3344 46.8648 99.3915 46.8648 101.156 46.8648C102.808 46.8648 102.865 46.8648 103.092 45.4353L104.913 34.6339H107.931C109.297 34.6339 109.297 34.6339 109.581 32.975C109.866 31.3161 109.867 31.3175 108.614 31.3175" fill="#FF8000"/>
<path d="M125.579 34.5723C126.945 34.5723 126.945 34.5723 127.229 32.9147C127.513 31.2572 127.514 31.2559 126.261 31.2559H119.373C116.925 31.2559 116.983 31.2559 116.585 33.7148L114.82 44.0642C114.365 46.7512 114.422 46.7512 116.87 46.7512H123.587C125.01 46.7512 124.953 46.7512 125.239 45.151C125.523 43.4934 125.523 43.4934 124.271 43.4934H118.462L118.918 40.5197H123.757C125.066 40.5197 125.066 40.5197 125.293 38.9768C125.522 37.3766 125.522 37.3766 123.757 37.3766H119.487L119.943 34.5763L125.579 34.5723Z" fill="#FF8000"/>
<path d="M132.865 40.061L135.085 35.1484C135.256 34.7483 135.256 34.7483 135.54 34.7483C135.824 34.7483 135.826 34.7483 135.883 35.2057L136.565 40.065L132.865 40.061ZM138.899 33.2001C138.558 31.2559 138.558 31.2559 135.826 31.2559C133.263 31.2559 133.32 31.2559 132.524 32.8561L126.774 44.9203C125.92 46.6352 126.091 46.8072 128.197 46.8072C129.848 46.8072 129.848 46.8072 130.531 45.263L131.448 43.2054H137.025L137.31 45.2643C137.537 46.8085 137.594 46.8085 139.244 46.8085C141.123 46.8085 141.294 46.6938 140.953 44.8083L138.899 33.2001Z" fill="#FF8000"/>
<path d="M152.505 31.3135H142.828C141.462 31.3135 141.462 31.3135 141.176 32.971C140.891 34.6286 140.949 34.6299 142.144 34.6299H145.275L143.51 44.8645C143.169 46.8648 143.226 46.8648 144.991 46.8648C146.641 46.8648 146.698 46.8648 146.926 45.4353L148.748 34.6339H151.762C153.128 34.6339 153.128 34.6339 153.413 32.975C153.755 31.3175 153.755 31.3175 152.503 31.3175" fill="#FF8000"/>
<path d="M54.002 34.9433C53.9064 34.6966 52.6013 32.2763 50.1796 29.2399C50.1184 29.1663 50.0797 29.0765 50.0681 28.9812C49.9224 27.2141 49.6786 25.4564 49.3378 23.7166C49.2993 23.5418 49.2072 23.3835 49.0746 23.264C48.942 23.1444 48.7754 23.0695 48.5983 23.0498L46.0784 22.7391C46.0563 22.7371 46.0341 22.7371 46.012 22.7391C45.8711 22.7391 45.7361 22.7953 45.6365 22.8953C45.5369 22.9954 45.4809 23.131 45.4809 23.2725V24.15C45.4809 24.1584 45.4776 24.1666 45.4716 24.1726C45.4656 24.1786 45.4575 24.182 45.4491 24.182C45.4413 24.1819 45.4337 24.179 45.4278 24.174C43.8513 22.7388 42.1494 21.449 40.3428 20.3201C39.9744 20.0723 39.5408 19.9405 39.0974 19.9414C38.654 19.94 38.2203 20.0719 37.8521 20.3201C29.1664 25.7048 24.3841 34.4633 24.1995 34.9433C24.145 35.0588 24.1169 35.185 24.1172 35.3127C24.1174 35.5051 24.1813 35.6919 24.2989 35.8437C24.4164 35.9956 24.5809 36.1038 24.7664 36.1515L27.2691 36.6342C27.4337 36.6804 27.5808 36.7751 27.6913 36.9061C27.8019 37.0371 27.8708 37.1983 27.8891 37.369C27.9104 37.813 28.383 47.725 28.9765 50.296C29.0254 50.4806 29.1336 50.6439 29.2844 50.7603C29.4352 50.8768 29.6201 50.94 29.8103 50.9401H29.8289C31.2893 50.9027 32.6263 50.8787 34.0708 50.8587H34.1903C34.2272 50.8587 34.2637 50.8514 34.2978 50.8372C34.3319 50.8229 34.3628 50.8021 34.3889 50.7758C34.4149 50.7496 34.4355 50.7184 34.4495 50.6841C34.4635 50.6498 34.4706 50.6131 34.4705 50.576V50.5693C34.412 49.7039 34.2859 47.725 34.1837 45.6354C34.1837 45.5834 34.1837 45.518 34.1744 45.4647C34.1698 45.3779 34.1442 45.2935 34.0998 45.2189C34.0554 45.1443 33.9935 45.0817 33.9195 45.0366C33.5384 44.8081 33.2192 44.4887 32.9902 44.1068C32.7612 43.7249 32.6293 43.2922 32.6064 42.847C32.4736 39.3719 32.4086 35.3541 32.5984 32.211C32.6071 32.0814 32.6651 31.9601 32.7605 31.8724C32.8558 31.7846 32.9811 31.7371 33.1104 31.7396C33.2397 31.7422 33.3631 31.7947 33.4549 31.8862C33.5467 31.9777 33.5999 32.1011 33.6035 32.231C33.6035 32.2443 33.6035 32.2577 33.6035 32.271C33.48 34.3659 33.4707 36.8436 33.5132 39.2879C33.5146 39.3667 33.5314 39.4445 33.5627 39.5167C33.5941 39.589 33.6392 39.6544 33.6957 39.7091C33.7522 39.7638 33.8188 39.8068 33.8918 39.8357C33.9648 39.8646 34.0428 39.8787 34.1213 39.8773C34.1997 39.8759 34.2771 39.859 34.3491 39.8275C34.4211 39.7961 34.4861 39.7507 34.5406 39.694C34.5951 39.6373 34.638 39.5704 34.6667 39.497C34.6954 39.4237 34.7095 39.3454 34.7081 39.2666C34.663 36.8062 34.6749 34.3126 34.801 32.211C34.8037 32.0769 34.8592 31.9495 34.9555 31.8565C35.0517 31.7636 35.1807 31.7129 35.3142 31.7156C35.4476 31.7182 35.5746 31.774 35.6671 31.8707C35.7596 31.9673 35.8101 32.0969 35.8074 32.231V32.271C35.684 34.3553 35.6747 36.8182 35.7171 39.2492C35.7196 39.4084 35.7849 39.56 35.8987 39.6708C36.0125 39.7816 36.1654 39.8424 36.3239 39.84C36.4824 39.8375 36.6333 39.7719 36.7436 39.6576C36.8539 39.5433 36.9145 39.3897 36.9121 39.2306C36.8682 36.7809 36.8802 34.2966 37.0063 32.2097C37.009 32.0756 37.0645 31.9481 37.1607 31.8552C37.257 31.7623 37.386 31.7116 37.5195 31.7143C37.6529 31.7169 37.7799 31.7727 37.8724 31.8694C37.9649 31.966 38.0153 32.0956 38.0127 32.2297C38.0127 32.243 38.0127 32.2563 38.0127 32.2697C37.8335 35.3261 37.8919 39.1932 38.0127 42.587C38.0127 42.587 38.0127 42.6163 38.0127 42.619C38.0127 42.6217 38.0127 42.6537 38.0127 42.671V42.7043C38.0131 43.1446 37.9066 43.5783 37.7026 43.968C37.4986 44.3576 37.2031 44.6915 36.8417 44.9406C36.7775 44.9851 36.7242 45.0436 36.6858 45.1117C36.6474 45.1798 36.6249 45.2559 36.62 45.334C36.62 45.334 36.5576 45.8554 36.7873 48.3797C36.8935 49.4825 36.9758 50.2466 37.013 50.592C37.0214 50.6566 37.053 50.7158 37.102 50.7586C37.1509 50.8013 37.2137 50.8246 37.2785 50.824H37.5122C37.9941 50.824 38.4907 50.824 39.0071 50.824H39.201H41.0757L42.4963 50.836C42.5615 50.8365 42.6247 50.8128 42.6736 50.7696C42.7226 50.7263 42.754 50.6664 42.7618 50.6013C43.0898 47.5756 43.1668 45.8754 43.1668 45.8754C43.165 45.8029 43.1371 45.7335 43.0883 45.6801C43.0394 45.6266 42.973 45.5927 42.9012 45.5847L41.1752 45.346C41.0607 45.3318 40.9529 45.284 40.8653 45.2086C40.7777 45.1331 40.7142 45.0334 40.6827 44.9219C40.661 44.8348 40.6534 44.7448 40.6601 44.6552C41.3598 34.57 44.671 31.1709 44.671 31.1709C44.7194 31.1185 44.7733 31.0716 44.8317 31.0308C44.9217 30.9644 45.0307 30.9289 45.1424 30.9295C45.249 30.9296 45.3532 30.962 45.4413 31.0224C45.5294 31.0828 45.5973 31.1685 45.6363 31.2682C45.6607 31.3469 45.675 31.4285 45.6787 31.5109C45.9655 34.6806 45.8248 40.076 45.6482 44.2845C45.4982 47.857 45.3176 50.6613 45.3176 50.6613C45.3174 50.6886 45.3226 50.7156 45.3329 50.7409C45.3432 50.7661 45.3583 50.789 45.3774 50.8084C45.3965 50.8277 45.4193 50.843 45.4443 50.8535C45.4694 50.864 45.4963 50.8694 45.5234 50.8694C46.4634 50.8854 47.3888 50.904 48.37 50.9294H48.3885C48.5788 50.9293 48.7636 50.8662 48.9144 50.7497C49.0652 50.6332 49.1735 50.4699 49.2223 50.2853C49.8171 47.7143 50.2845 37.8024 50.3097 37.3583C50.3288 37.1871 50.3986 37.0255 50.5101 36.8945C50.6216 36.7636 50.7696 36.6692 50.935 36.6236L53.4377 36.1408C53.6233 36.0932 53.7877 35.9849 53.9053 35.8331C54.0228 35.6812 54.0867 35.4944 54.087 35.302C54.0843 35.1778 54.0553 35.0555 54.002 34.9433Z" fill="#FF8000"/>
</g>
<rect x="24.1172" y="99.5156" width="139.153" height="73.1185" rx="6.64714" fill="#F5F3F1"/>
<rect x="169.917" y="99.5156" width="139.153" height="73.1185" rx="6.64714" fill="#F5F3F1"/>
<rect x="315.717" y="99.5156" width="139.153" height="73.1185" rx="6.64714" fill="#F5F3F1"/>
<rect x="461.517" y="99.5156" width="139.153" height="73.1185" rx="6.64714" fill="#F5F3F1"/>
<rect x="607.317" y="99.5156" width="139.153" height="73.1185" rx="6.64714" fill="#F5F3F1"/>
<path d="M753.117 106.163C753.117 102.492 756.093 99.5156 759.764 99.5156H807.117V172.516H759.764C756.093 172.516 753.117 169.54 753.117 165.868V106.163Z" fill="#F5F3F1"/>
<g filter="url(#filter0_ddd_3799_3760)">
<rect x="787" y="116" width="40" height="40" rx="20" fill="#F36805"/>
<g clip-path="url(#clip1_3799_3760)">
<path d="M796.5 137.125H813.975L808.335 142.765L810 144.355L817.02 137.32C817.194 137.147 817.332 136.941 817.427 136.714C817.521 136.488 817.57 136.245 817.57 136C817.57 135.754 817.521 135.511 817.427 135.285C817.332 135.058 817.194 134.852 817.02 134.68L810 127.645L808.335 129.235L813.975 134.875H796.5V137.125Z" fill="white"/>
</g>
</g>
<defs>
<filter id="filter0_ddd_3799_3760" x="770" y="107" width="74" height="74" filterUnits="userSpaceOnUse" color-interpolation-filters="sRGB">
<feFlood flood-opacity="0" result="BackgroundImageFix"/>
<feColorMatrix in="SourceAlpha" type="matrix" values="0 0 0 0 0 0 0 0 0 0 0 0 0 0 0 0 0 0 127 0" result="hardAlpha"/>
<feMorphology radius="2" operator="erode" in="SourceAlpha" result="effect1_dropShadow_3799_3760"/>
<feOffset dy="4"/>
<feGaussianBlur stdDeviation="4"/>
<feColorMatrix type="matrix" values="0 0 0 0 0 0 0 0 0 0 0 0 0 0 0 0 0 0 0.06 0"/>
<feBlend mode="normal" in2="BackgroundImageFix" result="effect1_dropShadow_3799_3760"/>
<feColorMatrix in="SourceAlpha" type="matrix" values="0 0 0 0 0 0 0 0 0 0 0 0 0 0 0 0 0 0 127 0" result="hardAlpha"/>
<feMorphology radius="3" operator="erode" in="SourceAlpha" result="effect2_dropShadow_3799_3760"/>
<feOffset dy="8"/>
<feGaussianBlur stdDeviation="10"/>
<feColorMatrix type="matrix" values="0 0 0 0 0 0 0 0 0 0 0 0 0 0 0 0 0 0 0.1 0"/>
<feBlend mode="normal" in2="effect1_dropShadow_3799_3760" result="effect2_dropShadow_3799_3760"/>
<feColorMatrix in="SourceAlpha" type="matrix" values="0 0 0 0 0 0 0 0 0 0 0 0 0 0 0 0 0 0 127 0" result="hardAlpha"/>
<feOffset dy="8"/>
<feGaussianBlur stdDeviation="4"/>
<feColorMatrix type="matrix" values="0 0 0 0 0 0 0 0 0 0 0 0 0 0 0 0 0 0 0.04 0"/>
<feBlend mode="normal" in2="effect2_dropShadow_3799_3760" result="effect3_dropShadow_3799_3760"/>
<feBlend mode="normal" in="SourceGraphic" in2="effect3_dropShadow_3799_3760" result="shape"/>
</filter>
<clipPath id="clip0_3799_3760">
<rect width="129.619" height="31.5739" fill="white" transform="translate(24.1172 19.9414)"/>
</clipPath>
<clipPath id="clip1_3799_3760">
<rect width="24" height="24" fill="white" transform="translate(795 124)"/>
</clipPath>
</defs>
</svg>

<svg xmlns="http://www.w3.org/2000/svg" width="851" height="223" fill="none"><path fill="#fff" d="M0 14C0 6.268 6.268 0 14 0h823c7.732 0 14 6.268 14 14v209H0V14Z"/><g fill="#FF8000" clip-path="url(#a)"><path d="M67.91 31.314h-4.212c-1.366 0-1.366 0-1.65 1.6-.285 1.6-.286 1.657.968 1.657h2.503l-1.423 8.179c-.341 1.83-1.138 3.088-3.585 3.83-.626.173-.796.4-.796.688 0 .342.113.628.398 1.314.398.972.626 1.143.968 1.143.343 0 .968-.17 1.195-.228 3.473-1.144 4.896-3.831 5.465-7.033l1.593-9.2c.284-1.945.284-1.945-1.423-1.945M82.2 31.314c-1.707 0-1.707 0-1.935 1.429l-1.252 7.433c-.342 2.172-.911 3.431-3.017 3.431-2.05 0-2.788-1.259-2.448-3.2l1.195-7.09c.342-2 .285-2-1.48-2-1.708 0-1.765 0-1.99 1.373l-1.253 7.433c-.74 4.23 1.878 6.86 5.577 6.86 4.157 0 6.262-1.886 6.946-6.346l1.252-7.375c.284-1.945.17-1.945-1.593-1.945M89.998 43.492c1.368-.057 2.107-.686 2.107-1.314 0-.8-.968-1.087-2.277-1.487-2.562-.8-4.896-1.715-4.896-4.461 0-3.259 2.677-5.031 6.034-5.031 1.424 0 3.018.057 4.043.172.91.114 1.138.4.854 1.83-.284 1.429-.627 1.544-1.424 1.486-.967-.057-2.22-.172-3.7-.172-1.707 0-2.22.63-2.22 1.2 0 .743.683 1.143 2.277 1.6 2.96.858 4.895 2.06 4.895 4.632 0 3.03-2.22 4.8-5.806 4.918a28.221 28.221 0 0 1-5.123-.287c-1.14-.17-1.195-.17-.91-1.83.283-1.486.283-1.6 1.365-1.486 2.106.229 3.415.286 4.78.229M108.611 31.314h-9.62c-1.365 0-1.365 0-1.65 1.657-.283 1.658-.228 1.659.969 1.659h3.132l-1.766 10.234c-.343 2-.286 2 1.479 2 1.651 0 1.708 0 1.935-1.429l1.822-10.801h3.018c1.366 0 1.366 0 1.65-1.659.284-1.659.286-1.658-.968-1.658M125.579 34.573c1.366 0 1.366 0 1.65-1.658.284-1.657.286-1.659-.968-1.659h-6.888c-2.448 0-2.39 0-2.788 2.46l-1.764 10.349c-.456 2.687-.399 2.687 2.05 2.687h6.716c1.424 0 1.367 0 1.652-1.6.284-1.658.284-1.658-.968-1.658h-5.808l.455-2.974h4.839c1.309 0 1.309 0 1.536-1.543.229-1.6.229-1.6-1.536-1.6h-4.27l.456-2.8 5.636-.004ZM132.865 40.062l2.22-4.913c.172-.4.172-.4.456-.4.284 0 .285 0 .342.457l.683 4.86-3.701-.005ZM138.9 33.2c-.341-1.945-.341-1.945-3.074-1.945-2.562 0-2.505 0-3.302 1.6l-5.75 12.065c-.854 1.715-.682 1.887 1.423 1.887 1.652 0 1.652 0 2.334-1.544l.918-2.058h5.576l.286 2.059c.227 1.544.284 1.544 1.934 1.544 1.879 0 2.05-.115 1.709-2L138.9 33.2ZM152.505 31.314h-9.677c-1.367 0-1.367 0-1.652 1.657-.286 1.658-.227 1.659.968 1.659h3.131l-1.765 10.234c-.341 2-.284 2 1.48 2 1.651 0 1.708 0 1.936-1.429l1.822-10.801h3.014c1.366 0 1.366 0 1.651-1.659.341-1.658.341-1.658-.911-1.658M54.002 34.943c-.096-.246-1.4-2.667-3.822-5.703a.499.499 0 0 1-.112-.259 47.836 47.836 0 0 0-.73-5.264.858.858 0 0 0-.74-.667l-2.52-.31a.368.368 0 0 0-.066 0 .53.53 0 0 0-.531.533v.877a.032.032 0 0 1-.032.032.034.034 0 0 1-.021-.008 35.493 35.493 0 0 0-5.085-3.854 2.223 2.223 0 0 0-1.246-.379 2.215 2.215 0 0 0-1.245.38C29.166 25.704 24.384 34.462 24.2 34.942a.86.86 0 0 0 .099.9c.117.153.282.26.467.308l2.503.483a.855.855 0 0 1 .62.735c.021.444.494 10.356 1.088 12.927a.867.867 0 0 0 .833.644h.019c1.46-.037 2.797-.061 4.242-.081h.12a.28.28 0 0 0 .28-.283v-.007c-.059-.865-.185-2.844-.287-4.934 0-.052 0-.117-.01-.17a.536.536 0 0 0-.255-.428 2.707 2.707 0 0 1-1.313-2.19c-.132-3.475-.197-7.493-.008-10.636a.506.506 0 0 1 .512-.471.502.502 0 0 1 .493.491v.04c-.123 2.095-.132 4.573-.09 7.017a.602.602 0 0 0 .608.59.595.595 0 0 0 .546-.381.603.603 0 0 0 .041-.23c-.045-2.46-.033-4.954.093-7.056a.507.507 0 0 1 .513-.495.502.502 0 0 1 .493.515v.04c-.123 2.084-.132 4.547-.09 6.978a.602.602 0 0 0 .607.591.596.596 0 0 0 .588-.61c-.044-2.45-.032-4.933.094-7.02a.507.507 0 0 1 .514-.496.502.502 0 0 1 .493.516v.04c-.18 3.056-.121 6.923 0 10.317V42.704a2.72 2.72 0 0 1-1.171 2.237.517.517 0 0 0-.222.393s-.062.521.167 3.046c.107 1.102.189 1.867.226 2.212a.267.267 0 0 0 .266.232h3.797l1.42.012a.265.265 0 0 0 .266-.235c.328-3.025.405-4.726.405-4.726a.3.3 0 0 0-.266-.29l-1.726-.239a.586.586 0 0 1-.492-.424.843.843 0 0 1-.023-.267c.7-10.085 4.011-13.484 4.011-13.484a.992.992 0 0 1 .16-.14.53.53 0 0 1 .805.237c.025.079.039.16.043.243.286 3.17.146 8.565-.03 12.774-.15 3.572-.331 6.376-.331 6.376a.207.207 0 0 0 .205.208c.94.016 1.866.035 2.847.06h.019a.86.86 0 0 0 .833-.644c.595-2.57 1.063-12.483 1.088-12.927a.863.863 0 0 1 .625-.734l2.503-.483a.863.863 0 0 0 .649-.839.88.88 0 0 0-.085-.359Z"/></g><rect width="139.153" height="73.118" x="24.117" y="99.515" fill="#F5F3F1" rx="6.647"/><rect width="139.153" height="73.118" x="169.918" y="99.515" fill="#F5F3F1" rx="6.647"/><rect width="139.153" height="73.118" x="315.719" y="99.515" fill="#F5F3F1" rx="6.647"/><rect width="139.153" height="73.118" x="461.516" y="99.515" fill="#F5F3F1" rx="6.647"/><rect width="139.153" height="73.118" x="607.316" y="99.515" fill="#F5F3F1" rx="6.647"/><path fill="#F5F3F1" d="M753.117 106.163a6.647 6.647 0 0 1 6.647-6.648h47.353v73h-47.353a6.647 6.647 0 0 1-6.647-6.647v-59.705Z"/><g filter="url(#b)"><rect width="40" height="40" x="787" y="116" fill="#F36805" rx="20"/><g clip-path="url(#c)"><path fill="#fff" d="M796.5 137.125h17.475l-5.64 5.64 1.665 1.59 7.02-7.035a1.87 1.87 0 0 0 .407-2.035 1.88 1.88 0 0 0-.407-.605l-7.02-7.035-1.665 1.59 5.64 5.64H796.5v2.25Z"/></g></g><defs><clipPath id="a"><path fill="#fff" d="M24.117 19.941h129.62v31.574H24.116z"/></clipPath><clipPath id="c"><path fill="#fff" d="M795 124h24v24h-24z"/></clipPath><filter id="b" width="74" height="74" x="770" y="107" color-interpolation-filters="sRGB" filterUnits="userSpaceOnUse"><feFlood flood-opacity="0" result="BackgroundImageFix"/><feColorMatrix in="SourceAlpha" result="hardAlpha" values="0 0 0 0 0 0 0 0 0 0 0 0 0 0 0 0 0 0 127 0"/><feMorphology in="SourceAlpha" radius="2" result="effect1_dropShadow_1258_78999"/><feOffset dy="4"/><feGaussianBlur stdDeviation="4"/><feColorMatrix values="0 0 0 0 0 0 0 0 0 0 0 0 0 0 0 0 0 0 0.06 0"/><feBlend in2="BackgroundImageFix" result="effect1_dropShadow_1258_78999"/><feColorMatrix in="SourceAlpha" result="hardAlpha" values="0 0 0 0 0 0 0 0 0 0 0 0 0 0 0 0 0 0 127 0"/><feMorphology in="SourceAlpha" radius="3" result="effect2_dropShadow_1258_78999"/><feOffset dy="8"/><feGaussianBlur stdDeviation="10"/><feColorMatrix values="0 0 0 0 0 0 0 0 0 0 0 0 0 0 0 0 0 0 0.1 0"/><feBlend in2="effect1_dropShadow_1258_78999" result="effect2_dropShadow_1258_78999"/><feColorMatrix in="SourceAlpha" result="hardAlpha" values="0 0 0 0 0 0 0 0 0 0 0 0 0 0 0 0 0 0 127 0"/><feOffset dy="8"/><feGaussianBlur stdDeviation="4"/><feColorMatrix values="0 0 0 0 0 0 0 0 0 0 0 0 0 0 0 0 0 0 0.04 0"/><feBlend in2="effect2_dropShadow_1258_78999" result="effect3_dropShadow_1258_78999"/><feBlend in="SourceGraphic" in2="effect3_dropShadow_1258_78999" result="shape"/></filter></defs></svg>
